X:1
T:Title
%%score ( 1 2 ) { ( 3 6 ) | ( 4 5 ) }
L:1/8
M:12/8
K:Bb
V:1 treble nm="Akkordion"
V:2 treble 
V:3 treble nm="Grand Piano"
V:6 treble 
V:4 bass 
V:5 bass 
V:1
 z6 z2[Q:1/4=111] [DF] [B,D]2 [CE] | [DF]6- [DF]2 [DB] [EG]2 [GB] | %2
 [DF]6- [DF]2 [DF] [A,C]2 [B,D] | [CE]6- [CE]3 [EG]3 | [DF]6- [DF]2 [DF] [B,D]2 [CE] | %5
 [DF]6- [DF]2 [DB] [EG]2 [GB] | [DF]6- [DF]2 [FA] [=EG]2 [FA] | [GB]6- [GB]3 C2 B, | %8
[M:4/4] [A,F]8 |[M:2/4] F [ce]2 [Bd] |[M:6/4] [ce]6- [ce]2 [FA] [Ac]2 [Fd] | [DB]6- [DB]3 [Bd]3 | %12
 [Ac]6- [Ac]2 [GB] [FA]2 [=EG] | F6- F2 [DF] [B,D]2 [CE] | [DF]6- [DF]2 [DB] [EG]2 [GB] | %15
 [DF]6- [DF]2 [Bd] [Ac]2 [Bd] | [ce]6- [ce]3 A2- [EA] |[M:9/8] B8- B |] %18
V:2
 x12 | x12 | x12 | x12 | x12 | x12 | x12 | z6 z3 =E3 |[M:4/4] x8 |[M:2/4] x4 |[M:6/4] x12 | x12 | %12
 x12 | x12 | x12 | x12 | z6 z2 z .F3 |[M:9/8] D3 E3 D3 |] %18
V:3
 z12 | z2 D D2 D .D3 z3 | z2 D D2 D .D3 z3 | z2 [A,CE] [A,CE]2 [A,CE] [A,CE]3 [A,C]3 | %4
 D2 D D2 D .D3 z3 | z2 D D2 D .D3 z3 | z2 D D2 D .D3 z3 | z2 [=EG] [EG]2 [EG] [EG]3 G3 | %8
[M:4/4] [CF]8 |[M:2/4] z4 |[M:6/4] z2 A A2 A .A6 | z2 [DF] [DF]2 [DF] .[DF]6 | %12
 z2 F F2 F F3 F2 [=EG] | .[F,F]2- .[F,-B,F-] .[F,-CF-]2 .[F,-DF-] .[F,CF]6 | z2 D D2 D .D6 | %15
 z2 D D2 D .D6 | z2 A A2 A .A6 |[M:9/8] z2 [FB] [EB]2 [EB] [DB]3 |] %18
V:4
 z12 | z2 [B,,F,B,] [B,,F,B,]2 [B,,F,B,] .[B,,F,B,]3 z3 | %2
 z2 [B,,F,B,] [B,,F,B,]2 [B,,F,B,] .[B,,F,B,]3 z3 | z2 [F,,F,] [F,,F,]2 [F,,F,] [F,,F,]3 [F,,F,]3 | %4
 [B,,B,]2 [B,,B,] [B,,B,]2 [B,,B,] .[B,,B,]3 z3 | %5
 z2 [B,,F,B,] [B,,F,B,]2 [B,,F,B,] .[B,,F,B,]3 z3 | %6
 z2 [B,,F,B,] [B,,F,B,]2 [B,,F,B,] .[B,,F,B,]3 z3 | z2 [C,C] [C,C]2 [C,C] [C,C]3 [C,C]3 | %8
[M:4/4] [F,,F,]8 |[M:2/4] z4 |[M:6/4] z2 [F,CF] [F,CF]2 [F,CF] .[F,CF]6 | %11
 z2 [B,,B,] [B,,B,]2 [B,,B,] .[B,,B,]6 | z2 [C,C] [C,C]2 [C,C] [C,C]3 C2 B, | z2 G, A,2 B, z6 | %14
 z2 [B,,F,B,] [B,,F,B,]2 [B,,F,B,] .[B,,F,B,]6 | z2 [B,,F,B,] [B,,F,B,]2 [B,,F,B,] .[B,,F,B,]6 | %16
 z2 [F,CF] [F,CF]2 [F,CF] .[F,CF]6 |[M:9/8] z2 [B,,F,] [B,,G,]2 [B,,G,] [B,,F,]3 |] %18
V:5
 x12 | x12 | x12 | x12 | x12 | x12 | x12 | x12 |[M:4/4] x8 |[M:2/4] x4 |[M:6/4] x12 | x12 | %12
 z6 z2 z C,3 | .F,,12 | x12 | x12 | x12 |[M:9/8] x9 |] %18
V:6
 x12 | x12 | x12 | x12 | x12 | x12 | x12 | x12 |[M:4/4] x8 |[M:2/4] x4 |[M:6/4] x12 | x12 | x12 | %13
 .A,6 z6 | x12 | x12 | x12 |[M:9/8] x9 |] %18

